svgs/sharp-solid/chart-scatter.svg

<svg xmlns="http://www.w3.org/2000/svg" viewBox="0 0 512 512"><!--! Font Awesome Pro 6.6.0 by @fontawesome - https://fontawesome.com License - https://fontawesome.com/license (Commercial License) Copyright 2024 Fonticons, Inc. --><path d="M64 64l0-32L0 32 0 64 0 448l0 32 32 0 448 0 32 0 0-64-32 0L64 416 64 64zm160 64l-64 0 0 64 64 0 0-64zM192 288l-64 0 0 64 64 0 0-64zm128-64l-64 0 0 64 64 0 0-64zm32 128l64 0 0-64-64 0 0 64zM448 96l-64 0 0 64 64 0 0-64z"/></svg>

<svg xmlns="http://www.w3.org/2000/svg" viewBox="0 0 512 512"><!--! Font Awesome Pro 6.4.2 by @fontawesome - https://fontawesome.com License - https://fontawesome.com/license (Commercial License) Copyright 2023 Fonticons, Inc. --><path d="M64 64V32H0V64 448v32H32 480h32V416H480 64V64zm160 64H160v64h64V128zM192 288H128v64h64V288zm128-64H256v64h64V224zm32 128h64V288H352v64zM448 96H384v64h64V96z"/></svg>
